resources/icons/fire.svg

<svg viewBox="0 0 16 18" xmlns="http://www.w3.org/2000/svg">
<path fill-rule="evenodd" clip-rule="evenodd" d="M7.06608 7.76221C8.00434 8.88119 8.14539 10.4665 7.41941 11.7335C6.76831 11.7839 6.18957 11.3211 6.09541 10.6749C5.13612 11.1991 4.5679 12.232 4.63875 13.3229C4.63875 14.1657 4.97359 14.9739 5.5696 15.5698C6.16561 16.1657 6.97395 16.5004 7.81675 16.5002C9.56164 16.4765 10.9704 15.0678 10.9941 13.3229C11.1114 10.1889 9.29141 8.49021 7.06608 7.76221Z" stroke="currentColor" stroke-width="1.6" stroke-linecap="round" stroke-linejoin="round"/>
<path fill-rule="evenodd" clip-rule="evenodd" d="M13.7448 5.49951H13.5001L11.7454 7.69285C11.0804 5.66638 11.1656 3.46844 11.9854 1.49951C8.87871 1.65696 6.07759 3.41915 4.59076 6.15151L3.00009 4.60018C0.413158 7.24037 0.324835 11.4369 2.79839 14.1836C5.27195 16.9303 9.4548 17.2804 12.3505 14.9831C15.2463 12.6858 15.8568 8.53301 13.7448 5.49951Z" stroke="currentColor" stroke-width="1.6" stroke-linecap="round" stroke-linejoin="round"/>
</svg>

<svg viewBox="0 0 16 18" xmlns="http://www.w3.org/2000/svg"><path fill-rule="evenodd" clip-rule="evenodd" d="M7.066 7.762a3.485 3.485 0 0 1 .353 3.971 1.241 1.241 0 0 1-1.324-1.058 2.81 2.81 0 0 0-1.456 2.648A3.177 3.177 0 0 0 7.817 16.5a3.221 3.221 0 0 0 3.177-3.177c.117-3.134-1.703-4.833-3.928-5.56Z" stroke="currentColor" stroke-width="1.6" stroke-linecap="round" stroke-linejoin="round"/><path fill-rule="evenodd" clip-rule="evenodd" d="M13.745 5.5H13.5l-1.755 2.193a8.896 8.896 0 0 1 .24-6.193 8.933 8.933 0 0 0-7.394 4.652L3 4.6a7 7 0 1 0 10.744.9Z" stroke="currentColor" stroke-width="1.6" stroke-linecap="round" stroke-linejoin="round"/></svg>
